icons/lines/snapchat.svg

<svg xmlns="http://www.w3.org/2000/svg" width="24" height="24" viewBox="0 0 24 24" fill="none" stroke="currentColor" stroke-width="2" stroke-linecap="round" stroke-linejoin="round" >
  <path fill-rule="evenodd" clip-rule="evenodd" d="M17.3004 15.3C17.0004 15.5 16.8004 15.5 16.6004 15.6C16.4004 15.6 16.3004 15.7 16.2004 15.8C16.0004 15.8 16.0004 16 16.0004 16.1C16.0004 16.2 16.0004 16.3 15.9004 16.4C15.8004 16.5 15.6004 16.5 15.4004 16.5C15.1004 16.5 14.7004 16.5 14.3004 16.7C14.1004 16.8 13.9004 16.9 13.7004 17C13.3004 17.3 12.9004 17.5 12.1004 17.5C11.3004 17.5 10.9004 17.2 10.5004 17C10.3004 16.9 10.1004 16.7 9.90044 16.7C9.50044 16.6 9.10044 16.5 8.80044 16.5C8.60044 16.5 8.40044 16.5 8.30044 16.4C8.00044 16.3 8.00044 16.2 8.00044 16.1C8.00044 16 8.00044 15.8 7.80044 15.8C7.70044 15.7 7.50044 15.7 7.40044 15.6C7.20044 15.5 7.00044 15.5 6.70044 15.3C6.40044 15.1 6.60044 15 6.70044 14.9C8.60044 14 8.90044 12.5 8.90044 12.4C8.90044 12.3 8.90044 12.2 8.80044 12.1C8.70044 12 8.40044 11.8 8.10044 11.7C8.00044 11.6 7.90044 11.6 7.80044 11.5C7.50044 11.3 7.40044 11.1 7.50044 10.9C7.60044 10.7 7.70044 10.7 7.90044 10.7C8.00044 10.7 8.00044 10.7 8.10044 10.7C8.30044 10.7 8.50044 10.8 8.60044 10.9C8.70044 10.9 8.80044 11 8.90044 11C8.90044 11 8.90044 11 9.00044 11C9.10044 11 9.10044 11 9.10044 10.8V10.7C9.10044 10.4 9.00044 9.70001 9.10044 9.20001C9.20044 8.40001 9.40044 7.90001 9.80044 7.60001C10.0004 7.40001 10.7004 6.70001 12.1004 6.70001C13.5004 6.70001 14.2004 7.50001 14.4004 7.60001C14.7004 8.00001 15.0004 8.40001 15.1004 9.20001C15.2004 9.80001 15.1004 10.4 15.1004 10.8C15.1004 10.9 15.1004 11 15.2004 11C15.2004 11 15.2004 11 15.3004 11C15.4004 11 15.5004 10.9 15.6004 10.9C15.8004 10.8 15.9004 10.8 16.1004 10.7C16.1004 10.7 16.2004 10.7 16.3004 10.7C16.5004 10.7 16.6004 10.8 16.7004 10.9C16.8004 11.1 16.7004 11.3 16.4004 11.5C16.3004 11.5 16.2004 11.6 16.1004 11.7C15.9004 11.9 15.5004 12.1 15.4004 12.1C15.3004 12.2 15.3004 12.3 15.3004 12.4C15.3004 12.5 15.6004 13.9 17.5004 14.9C17.5004 15 17.7004 15.1 17.3004 15.3Z" stroke-miterlimit="10"/>
  <path d="M12 22C17.5228 22 22 17.5228 22 12C22 6.47715 17.5228 2 12 2C6.47715 2 2 6.47715 2 12C2 17.5228 6.47715 22 12 22Z" stroke-miterlimit="10"/>
  </svg>

<svg xmlns="http://www.w3.org/2000/svg" width="24" height="24" viewBox="0 0 24 24" fill="none" stroke="currentColor" stroke-width="2" stroke-linecap="round" stroke-linejoin="round">
  <path d="M12 22c5.523 0 10-4.477 10-10S17.523 2 12 2 2 6.477 2 12s4.477 10 10 10" />
  <path d="M17.3 15.3c-.3.2-.5.2-.7.3-.2 0-.3.1-.4.2-.2 0-.2.2-.2.3s0 .2-.1.3-.3.1-.5.1c-.3 0-.7 0-1.1.2l-.6.3c-.4.3-.8.5-1.6.5s-1.2-.3-1.6-.5c-.2-.1-.4-.3-.6-.3-.4-.1-.8-.2-1.1-.2-.2 0-.4 0-.5-.1-.3-.1-.3-.2-.3-.3s0-.3-.2-.3c-.1-.1-.3-.1-.4-.2-.2-.1-.4-.1-.7-.3s-.1-.3 0-.4c1.9-.9 2.2-2.4 2.2-2.5s0-.2-.1-.3-.4-.3-.7-.4c-.1-.1-.2-.1-.3-.2q-.45-.3-.3-.6c.1-.2.2-.2.4-.2h.2c.2 0 .4.1.5.2.1 0 .2.1.3.1H9c.1 0 .1 0 .1-.2v-.1c0-.3-.1-1 0-1.5.1-.8.3-1.3.7-1.6.2-.2.9-.9 2.3-.9s2.1.8 2.3.9c.3.4.6.8.7 1.6.1.6 0 1.2 0 1.6 0 .1 0 .2.1.2h.1c.1 0 .2-.1.3-.1.2-.1.3-.1.5-.2h.2c.2 0 .3.1.4.2q.15.3-.3.6c-.1 0-.2.1-.3.2-.2.2-.6.4-.7.4-.1.1-.1.2-.1.3s.3 1.5 2.2 2.5c0 .1.2.2-.2.4" />
</svg>
